X:85
T:The Laughing Wolf                                                                                 
M:4/4                                                                                               
L:1/8                                                                                               
K:ADor                                                                                              
Ad|eAAB AGEF|GAGE DEGB|eAAB AGEF|1 GAGE D3 ee:|2GAGE D3 cd||                                        
eaaf gfed|efed gBBd|eaaf gfed|eged (3gag fg|                                                        
eaaf gfed|eged gBBd| eaaf gfeB|(3cBA BAG A4 |>|
